images/heart7.svg

<svg width="184" height="34" viewBox="0 0 184 34" fill="none" xmlns="http://www.w3.org/2000/svg">
<path d="M93.5951 0.882037H83.9426L76.4932 13.5737H81.9347C83.2344 13.5712 84.5133 13.2395 85.657 12.608C86.8007 11.9765 87.7736 11.065 88.4887 9.95498L93.5951 0.882037Z" fill="#1F305E"/>
<path d="M80.2014 15.7726H74.0045V0.882037H65.9425V33.2058H74.0045V17.6971L84.4142 33.2058H94.823L84.785 18.2544C84.2757 17.4908 83.5922 16.8658 82.7935 16.4333C81.9948 16.0009 81.1051 15.7741 80.2014 15.7726ZM0.000488281 33.2058H22.9212V26.1791H8.06252V20.3634H22.5925V13.288H8.06252V7.9087H22.9212V0.882037H0.000488281V33.2058ZM45.7558 7.71484C48.9898 7.71484 51.6616 9.84822 52.6926 12.4161L59.6302 9.02408C57.5673 4.76014 53.5368 0.350098 45.7558 0.350098C36.3817 0.350098 29.0696 7.08644 29.0696 17.0697C29.0696 27.0042 36.3817 33.7883 45.7558 33.7883C53.5368 33.7883 57.6149 29.2818 59.6302 25.1134L52.6926 21.7204C51.6616 24.2893 48.9898 26.4208 45.7558 26.4208C40.8811 26.4208 37.2717 22.3507 37.2717 17.0678C37.2717 11.7859 40.8811 7.71484 45.7558 7.71484ZM108.381 0.882037H100.319V33.2058H120.942V25.9366H108.381V0.882037ZM126.884 33.2058H149.805V26.1791H134.946V20.3634H149.476V13.288H134.946V7.9087H149.805V0.882037H126.884V33.2058ZM170.778 15.1788H164.404V7.90963H170.778C172.888 7.90963 174.669 9.31534 174.669 11.5442C174.669 13.7741 172.888 15.1798 170.778 15.1798V15.1788ZM176.637 21.3336C179.543 20.2679 182.871 17.2635 182.871 11.6407C182.871 5.6311 178.934 0.882974 171.997 0.882974H156.342V33.2067H164.404V22.2551H168.528L173.779 33.2067H183.012L176.637 21.3336Z" fill="#1F305E"/>
</svg>

<svg width="184" height="34" fill="none" xmlns="http://www.w3.org/2000/svg"><path d="M93.595.882h-9.652l-7.45 12.692h5.442a7.728 7.728 0 0 0 3.722-.966 7.935 7.935 0 0 0 2.832-2.653L93.595.882Z" fill="#1F305E"/><path d="M80.201 15.773h-6.197V.882h-8.062v32.324h8.063V17.697l10.41 15.509h10.408L84.785 18.254a5.604 5.604 0 0 0-1.992-1.82 5.461 5.461 0 0 0-2.592-.661ZM.001 33.206h22.92v-7.027H8.063v-5.816h14.53v-7.075H8.063v-5.38H22.92V.883H.001v32.324ZM45.755 7.715c3.234 0 5.906 2.133 6.937 4.701l6.937-3.392C57.567 4.76 53.537.35 45.756.35 36.382.35 29.07 7.086 29.07 17.07c0 9.934 7.312 16.718 16.686 16.718 7.78 0 11.859-4.506 13.874-8.675l-6.937-3.393c-1.031 2.57-3.703 4.7-6.937 4.7-4.875 0-8.484-4.07-8.484-9.352s3.61-9.353 8.484-9.353ZM108.38.882h-8.062v32.324h20.623v-7.27h-12.561V.883Zm18.503 32.324h22.921v-7.027h-14.859v-5.816h14.53v-7.075h-14.53v-5.38h14.859V.883h-22.921v32.324Zm43.894-18.027h-6.374v-7.27h6.374c2.11 0 3.891 1.406 3.891 3.635 0 2.23-1.781 3.636-3.891 3.636v-.001Zm5.859 6.155c2.906-1.066 6.234-4.07 6.234-9.693 0-6.01-3.937-10.758-10.874-10.758h-15.655v32.324h8.062V22.255h4.124l5.251 10.952h9.233l-6.375-11.873Z" fill="#1F305E"/></svg>
